build/img/arrow-down_icon.svg

<svg width="24" height="24" viewBox="0 0 24 24" fill="none" xmlns="http://www.w3.org/2000/svg"><path d="M15.721 8.961l-3.72 3.72-3.72-3.72-1.179 1.179 3.72 3.72 1.179 1.179 1.179-1.179 3.72-3.72-1.179-1.179z" fill="currentColor"/></svg>

<svg width="24" height="24" viewBox="0 0 24 24" fill="none" xmlns="http://www.w3.org/2000/svg">
<path d="M15.721 8.961L12.001 12.681L8.28096 8.961L7.10196 10.14L10.822 13.86L12.001 15.039L13.18 13.86L16.9 10.14L15.721 8.961Z" fill="currentColor"/>
</svg>
